src/farm.svg

<?xml version="1.0" encoding="utf-8"?><svg xmlns="http://www.w3.org/2000/svg" xmlns:xlink="http://www.w3.org/1999/xlink" version="1.1" class="page" pageAlignment="none" x="0px" y="0px" width="24px" height="12px" viewBox="0 0 24 12" enable-background="new 0 0 24 12" xml:space="preserve"><defs/><style type="text/css"/><style type="text/css"/><g type="LAYER" name="workspace" id="workspace" locked="true"/><path transform="matrix(1 0 0 1 1.4210854715202004e-14 -13.174118312797187)" width="4.893912" height="8.433" stroke-miterlimit="3" stroke="none" fill="#fff" d="M23.1,15.031 C21.968,14.8 20.682000000000002,14.599 19.167,14.415000000000001 C18.984,14.391000000000002 18.801000000000002,14.475000000000001 18.695,14.627 C18.59,14.780000000000001 18.577,14.979000000000001 18.664,15.143 L22.558,22.576 C22.646,22.743000000000002 22.818,22.844 23.001,22.844 C23.041,22.844 23.081,22.839000000000002 23.121000000000002,22.829 C23.344,22.774 23.501,22.574 23.501,22.344 L23.501,15.520000000000001 C23.5,15.283 23.333,15.079 23.1,15.031 Z "/><path transform="matrix(1 0 0 1 1.4210854715202004e-14 -13.174118312797187)" width="7.248022999999998" height="9.938197" stroke-miterlimit="3" stroke="none" fill="#fff" d="M17.169,14.446 C17.089000000000002,14.293 16.936,14.193 16.764,14.179 L16.367,14.148 C15.956000000000001,14.115 15.546000000000001,14.081999999999999 15.124,14.062 C14.978,14.055 14.839,14.112 14.739,14.216 C14.639000000000001,14.319999999999999 14.589,14.463 14.602,14.607 L15.415000000000001,23.545 C15.439,23.803 15.655,24 15.914,24 L21.348,24 C21.523,24 21.685,23.909 21.776,23.759 C21.867,23.61 21.872,23.423000000000002 21.791,23.268 L17.169,14.446 Z "/><path transform="matrix(1 0 0 1 1.4210854715202004e-14 -13.174118312797187)" width="4.853" height="8.35784" stroke-miterlimit="3" stroke="none" fill="#fff" d="M5.263,14.702 C5.157,14.549 4.973,14.466 4.788,14.493 C3.2790000000000004,14.693 2.0050000000000003,14.907 0.8940000000000001,15.148 C0.6640000000000001,15.198 0.5000000000000001,15.401 0.5000000000000001,15.637 L0.5000000000000001,22.346 C0.5000000000000001,22.576 0.6570000000000001,22.777 0.8800000000000001,22.831 C0.9200000000000002,22.841 0.9600000000000001,22.846 1,22.846 C1.183,22.846 1.355,22.745 1.443,22.578 L5.297000000000001,15.221 C5.383,15.055 5.37,14.855 5.263,14.702 Z "/><path transform="matrix(1 0 0 1 1.4210854715202004e-14 -13.174118312797187)" width="5.706367999999999" height="10.002263000000001" stroke-miterlimit="3" stroke="none" fill="#fff" d="M13.095,14.014 L12.759,14.004999999999999 C12.280000000000001,13.989999999999998 11.792,13.999999999999998 11.313,14.015999999999998 L10.817,14.030999999999999 C10.58,14.036999999999999 10.379,14.207999999999998 10.338000000000001,14.441999999999998 L8.707,23.410999999999998 C8.680000000000001,23.557 8.72,23.706999999999997 8.815000000000001,23.820999999999998 C8.909,23.934 9.05,24 9.198,24 L13.905000000000001,24 C14.046000000000001,24 14.179000000000002,23.941 14.274000000000001,23.837 C14.369000000000002,23.733 14.416,23.594 14.403,23.454 L13.586,14.468 C13.562,14.213 13.351,14.018 13.095,14.014 Z "/><path transform="matrix(1 0 0 1 1.4210854715202004e-14 -13.174118312797187)" width="7.1302720000000015" height="9.891" stroke-miterlimit="3" stroke="none" fill="#fff" d="M9.156,14.276 C9.055,14.161999999999999 8.916,14.108 8.752,14.109 C8.229000000000001,14.14 7.7170000000000005,14.183 7.206,14.227 C7.0360000000000005,14.242 6.885000000000001,14.342 6.806,14.493 L2.2089999999999996,23.268 C2.1279999999999997,23.423000000000002 2.1329999999999996,23.609 2.2239999999999998,23.759 C2.315,23.909 2.478,24 2.652,24 L7.165,24 C7.407,24 7.614,23.827 7.657,23.589 L9.274000000000001,14.695999999999998 C9.302,14.546 9.258,14.391 9.156,14.276 Z "/></svg>

<svg xmlns="http://www.w3.org/2000/svg" xmlns:xlink="http://www.w3.org/1999/xlink" version="1.1" x="0px" y="0px" viewBox="0 0 24 24" style="enable-background:new 0 0 24 24;" xml:space="preserve"><g><path d="M23.1,15.031c-1.132-0.231-2.418-0.432-3.933-0.616c-0.183-0.024-0.366,0.06-0.472,0.212   c-0.105,0.153-0.118,0.352-0.031,0.516l3.894,7.433c0.088,0.167,0.26,0.268,0.443,0.268c0.04,0,0.08-0.005,0.12-0.015   c0.223-0.055,0.38-0.255,0.38-0.485v-6.824C23.5,15.283,23.333,15.079,23.1,15.031z"/><path d="M17.169,14.446c-0.08-0.153-0.233-0.253-0.405-0.267l-0.397-0.031c-0.411-0.033-0.821-0.066-1.243-0.086   c-0.146-0.007-0.285,0.05-0.385,0.154c-0.1,0.104-0.15,0.247-0.137,0.391l0.813,8.938C15.439,23.803,15.655,24,15.914,24h5.434   c0.175,0,0.337-0.091,0.428-0.241c0.091-0.149,0.096-0.336,0.015-0.491L17.169,14.446z"/><path d="M5.263,14.702c-0.106-0.153-0.29-0.236-0.475-0.209c-1.509,0.2-2.783,0.414-3.894,0.655   c-0.23,0.05-0.394,0.253-0.394,0.489v6.709c0,0.23,0.157,0.431,0.38,0.485c0.04,0.01,0.08,0.015,0.12,0.015   c0.183,0,0.355-0.101,0.443-0.268l3.854-7.357C5.383,15.055,5.37,14.855,5.263,14.702z"/><path d="M13.095,14.014l-0.336-0.009c-0.479-0.015-0.967-0.005-1.446,0.011l-0.496,0.015   c-0.237,0.006-0.438,0.177-0.479,0.411l-1.631,8.969c-0.027,0.146,0.013,0.296,0.108,0.41C8.909,23.934,9.05,24,9.198,24h4.707   c0.141,0,0.274-0.059,0.369-0.163c0.095-0.104,0.142-0.243,0.129-0.383l-0.817-8.986C13.562,14.213,13.351,14.018,13.095,14.014z"/><path d="M9.156,14.276c-0.101-0.114-0.24-0.168-0.404-0.167c-0.523,0.031-1.035,0.074-1.546,0.118   c-0.17,0.015-0.321,0.115-0.4,0.266l-4.597,8.775c-0.081,0.155-0.076,0.341,0.015,0.491C2.315,23.909,2.478,24,2.652,24h4.513   c0.242,0,0.449-0.173,0.492-0.411l1.617-8.893C9.302,14.546,9.258,14.391,9.156,14.276z"/></g></svg>
